!!!COM: Peter Cornelius
!!!CNT: Deutsch
!!!TXO: Deutsch
!!!OTL: Trost
!!!LYR: Cornelius
!!!OPR: Trauer und Trost
!!!OPS: Op.3
!!!ONM: No. 6
!!!ENC: Ben Fuhrman
!!!YOR: CD Sheet Music, Mid-Romantic German Lieder: The Ultimate Collection.
!!!YOR: CD Sheet Music, LLC 2001
!!!ODT: 1854
!!NB: Only vocal melody encoded.
!!NB: First instance of melodic material only encoded.
!!created: 2/2/10 12:29PM
!!proofed and posted: 2/2/10 12:30PM
**kern	**silbe
*clef G2	*
*k[]	*
*M4/4	*
*MM[Ma2ssig langsam]	*
{8g	{Der
8g	Glu2-
8f	ckes
=1	=1
8.d	Fu2l-
16d	-le
8.e	mir
16e	ver-
4a}	-lieh'n}
4r	.
=2	=2
8r	.
{8dd	{und
8.dd	Hoch-
16a	-ge-
2g}	-sang,}
=3	=3
1r	.
=4	=4
{4cc	{nun
8b	such
8cc	in
8.a	Schmer-
16a	-zen
8.g	preis'
16f	ich
=5	=5
4.f	ihn
8e	mein
4.d	Le-
8d	-ben
=6	=6
2e}	lang.}
2r	.
=7	=7
2r	.
8r	.
{8g#	{Mir
8a	sei
8b	ein
=8	=8
4cc	sich-
4cc	-res
4.ee	Him-
8b	-mels-
=9	=9
2a	-pfand,
8r	.
8dd	was
8dd	ich
8a	ver-
=10	=10
2g#}	-lor;}
2r	.
=11	=11
2r	.
8r	.
{8e	{mich
8f#	fu2hrt
8g#	der
=12	=12
4a	Schmerz
4a	an
4.cc	star-
8cc	-ker
=13	=13
2gn	Hand
8r	.
8a	zu
8.g	ihm
16f	em-
=14	=14
(4f	-por.
4e)}	|}
2r	.
=15	=15
1r	.
=16	=16
{4g	{Wenn
8g	ich
8f	in
8.d	Won-
16d	-nen
8.e	bang
16e	be-
=17	=17
2a	-klagt
8r	.
8dd	den
8dd	Flug
8a	der
=18	=18
2g}	Zeit,}
2r	.
=19	=19
4r	.
8r	.
{8g	{in
4cc	Schmer-
4b	-zen
=20	=20
8a	hat
8a	mir
8b	hell
8cc	ge-
4.d	-tagt
8g	Un-
=21	=21
4.ee	-sterb-
8cc	-lich-
2g}	-keit}
==	==
*-	*-
